X:1
T:Title
%%score { ( 1 3 5 ) | ( 2 4 ) }
L:1/8
Q:1/4=100
M:4/4
K:Ab
V:1 treble nm="Grand Piano"
V:3 treble 
V:5 treble 
V:2 bass 
V:4 bass 
V:1
 [Ec]2 [Ec]2 [DB]>[CA] [Ec]>[DB] | [CA]4 [CE]4 | [DF]2 [EF]2 [=DF]>[DF] [DB]>[Dc] | B6 z2 | %4
w: C.~Austin~Miles * * * * *||||
 [Ec]2 [Ec]2 [DB]>[CA] [Ec]>[DB] | [CA]4 [CE]4 | [DF][DG][FA][Fd] [Ec]2 [DB]2 |[M:3/4] [CA]6 | %8
w: ||||
[M:1/4] A>G |[M:4/4] z2 D>D z z/ B/ A>F | z2 C>C z z/ A/ G>A | B6 z2 | [EAc]6 A>G | %13
w: |||||
 z2 D>D z z/ B/ A>F | z2 C>C C2 [CA]>[DB] | [Ec]3 [Fd] [Ec]2 [DB]2 | [CA]6 z2 |] %17
w: ||||
V:2
 [A,,A,]2 [A,,A,]2 [A,,A,]>[A,,A,] [A,,A,]>[A,,A,] | [A,,A,]4 [A,,A,]4 | %2
 [D,A,]2 [C,=A,]2 [B,,B,]>[B,,B,] [B,,A,]>[B,,A,] | E4 z4 | %4
 [A,,A,]2 [A,,A,]2 [A,,A,]>[A,,A,] [A,,A,]>[A,,A,] | [A,,A,]4 [A,,A,]4 | %6
 [D,A,][D,A,][D,A,][D,A,] [E,A,]2 [E,G,]2 |[M:3/4] [A,,A,]6 |[M:1/4] z2 | %9
[M:4/4] z2 [D,A,]>[D,A,] [D,A,]2 z2 | z2 [A,,A,]>[A,,A,] [A,,A,]2 z2 | %11
 z2 [E,E]>[E,E] [E,E]>[E,E] [E,E]>[E,E] | A,>A, E,>C, A,,2 z2 | z2 [D,A,]>[D,A,] [D,A,]2 z2 | %14
 z2 [A,,A,]>[A,,A,] [A,,A,]2 [A,,A,]>[A,,A,] | [E,A,]3 [E,A,] [E,A,]2 [E,G,]2 | [A,,A,]6 z2 |] %17
V:3
 x8 | x8 | x8 | z4 G2 F2 | x8 | x8 | x8 |[M:3/4] x6 |[M:1/4] x2 |[M:4/4] F6 z2 | E6 z2 | %11
 z2 G>G G>[Gc] [Gd]>[Gd] | x8 | F6 z2 | E6 z2 | x8 | x8 |] %17
V:4
 x8 | x8 | x8 | [E,G,]6 z2 | x8 | x8 | x8 |[M:3/4] x6 |[M:1/4] x2 |[M:4/4] x8 | x8 | x8 | x8 | x8 | %14
 x8 | x8 | x8 |] %17
V:5
 x8 | x8 | x8 | x8 | x8 | x8 | x8 |[M:3/4] x6 |[M:1/4] x2 |[M:4/4] z4 D2 z2 | z4 C2 z2 | x8 | x8 | %13
 z4 D2 z2 | x8 | x8 | x8 |] %17

